X:80
T: SCHOEN SUSCHEN KANNT ICH LANGE ZEIT
N: F0187
O: Europa, Mitteleuropa, Deutschland
R: Liebes - Lied, Lebens - Philosophie, Spott
M: 6/8
L: 1/8
K: Bb
F | B2BBcd | ceee2
c | d2df2e | e3d2
F | B2BBcd | ceee2
c | d2df2e | e3d2
f | f2de2c | d2Bc2
f | e2cd2B | c3z2
F | B2BBdd | ceee2
c | dfBc2d | B3z2

@@@ Tune index: 5511
